brandFactory_export/1.Light/Multicontenid_1Light.svg

<?xml version="1.0" encoding="UTF-8"?>
<svg width="24px" height="24px" viewBox="0 0 24 24" version="1.1" xmlns="http://www.w3.org/2000/svg" xmlns:xlink="http://www.w3.org/1999/xlink">
    <title>1.Light/Multicontenid_1Light</title>
    <g id="Symbols" stroke="none" stroke-width="1" fill="none" fill-rule="evenodd">
        <g id="1.Light/Multicontenid_1Light" fill="#5CB615" fill-rule="nonzero">
            <path d="M13.1193277,19.7546218 C13.3042017,19.7546218 13.4554622,19.9058824 13.4554622,20.0907563 C13.4554622,20.2756303 13.3042017,20.4268908 13.1193277,20.4268908 L6.56470588,20.4268908 C6.37983193,20.4268908 6.22857143,20.2756303 6.22857143,20.0907563 C6.22857143,19.9058824 6.37983193,19.7546218 6.56470588,19.7546218 L13.1193277,19.7546218 Z M16.0605042,4.00336134 C17.2773109,4.00336134 18.2016807,4.35630252 18.810084,5.05210084 C19.3815126,5.70756303 19.6739496,6.67563025 19.6739496,7.92941176 L19.6733613,8.27136134 L21.4386555,8.27226891 C22.1747899,8.27226891 22.7092437,8.45042017 23.0756303,8.81680672 C23.4386555,9.18319328 23.6168067,9.71764706 23.6168067,10.4504202 L23.6168067,18.2386555 C23.6168067,19.707563 22.9042017,20.4201681 21.4386555,20.4201681 L17.912605,20.4201681 C16.4470588,20.4201681 15.7344538,19.707563 15.7344538,18.2420168 L15.7343613,17.7843613 L3.61680672,17.7848739 C2.4,17.7848739 1.47563025,17.4319328 0.86722689,16.7361345 C0.295798319,16.0806723 0.00336134407,15.112605 0.00336134407,13.8588235 L0.00336134407,7.92941176 C0.00336134407,6.67563025 0.292436974,5.70756303 0.86722689,5.05210084 C1.47563025,4.35630252 2.4,4.00336134 3.61680672,4.00336134 L16.0605042,4.00336134 Z M21.4386555,8.94789916 L17.912605,8.94789916 C16.8436975,8.94789916 16.4067227,9.38487395 16.4067227,10.4537815 L16.4067227,18.2420168 C16.4067227,19.3277311 16.8302521,19.7478992 17.912605,19.7478992 L21.4386555,19.7478992 C22.5243697,19.7478992 22.9445378,19.3243697 22.9445378,18.2420168 L22.9445378,10.4537815 C22.9445378,9.36806723 22.5210084,8.94789916 21.4386555,8.94789916 Z M19.6773109,17.5697479 C20.0168067,17.5697479 20.2352941,17.7478992 20.2386555,18.1344538 C20.2386555,18.3193277 20.1882353,18.4537815 20.097479,18.5478992 C19.9966387,18.6487395 19.8554622,18.6957983 19.6773109,18.6957983 C19.4991597,18.6957983 19.3546218,18.6487395 19.2571429,18.5478992 C19.1663866,18.4571429 19.1159664,18.3193277 19.1159664,18.1344538 C19.1159664,17.7478992 19.3378151,17.5697479 19.6773109,17.5697479 Z M16.0605042,4.67226891 L3.61680672,4.67226891 C1.61008403,4.67226891 0.675630252,5.70756303 0.675630252,7.92941176 L0.675630252,13.8554622 C0.675630252,16.0773109 1.61008403,17.112605 3.61680672,17.112605 L15.7343613,17.1123613 L15.7344538,10.4537815 C15.7344538,9.73109244 15.912605,9.20336134 16.2789916,8.8302521 C16.6487395,8.45714286 17.1831933,8.27226891 17.912605,8.27226891 L19.0013613,8.27136134 L19.0016807,7.92941176 C19.0016807,5.70756303 18.0672269,4.67226891 16.0605042,4.67226891 Z" id="Multicontenid_1Light"></path>
        </g>
    </g>
</svg>

<svg width="24" height="24" viewBox="0 0 24 24" xmlns="http://www.w3.org/2000/svg"><path d="M13.12 19.755c.184 0 .335.15.335.336a.337.337 0 01-.336.336H6.565a.337.337 0 01-.336-.336c0-.185.15-.336.336-.336h6.554zm2.94-15.752c1.217 0 2.142.353 2.75 1.05.572.655.864 1.623.864 2.876v.342l1.765.001c.736 0 1.27.178 1.637.545.363.366.54.9.54 1.633v7.789c0 1.469-.712 2.181-2.177 2.181h-3.526c-1.466 0-2.179-.712-2.179-2.178v-.458H3.617c-1.217 0-2.141-.352-2.75-1.048-.571-.655-.864-1.623-.864-2.877v-5.93c0-1.253.29-2.221.864-2.877.609-.696 1.533-1.049 2.75-1.049H16.06zm5.379 4.945h-3.526c-1.07 0-1.506.437-1.506 1.506v7.788c0 1.086.423 1.506 1.506 1.506h3.526c1.085 0 1.506-.424 1.506-1.506v-7.788c0-1.086-.424-1.506-1.506-1.506zm-1.762 8.622c.34 0 .558.178.562.564 0 .185-.05.32-.142.414-.1.1-.242.148-.42.148s-.322-.047-.42-.148c-.09-.09-.141-.229-.141-.414 0-.386.222-.564.561-.564zM16.061 4.672H3.617C1.61 4.672.676 5.708.676 7.93v5.926c0 2.222.934 3.258 2.94 3.258h12.118v-6.66c0-.722.179-1.25.545-1.623.37-.373.904-.558 1.634-.558H19v-.343c0-2.221-.934-3.257-2.94-3.257z" fill="#5CB615" fill-rule="nonzero"/></svg>
